svg/white/loom.svg

<svg width="32" height="32" viewBox="0 0 32 32" version="1.1" xmlns="http://www.w3.org/2000/svg" xmlns:xlink="http://www.w3.org/1999/xlink"><title>svg/white/loom</title><desc>Created with Sketch.</desc><g id="white/loom" stroke="none" stroke-width="1" fill="none" fill-rule="evenodd"><path d="M24.9194081,15.6200242 L25.4714286,15.2328571 C25.4696436,15.2308204 25.467859,15.2287835 25.4660746,15.2267463 L26.1628571,14.74 C27.2957692,13.9449056 27.9701912,12.6476469 27.9701912,11.2635714 C27.9701912,9.87949595 27.2957692,8.58223725 26.1628571,7.78714286 L26.1714286,7.79714286 L22.21,5.02 L17.31,8.44857143 L18.6242857,9.37428571 L22.2042857,6.86857143 L25.2942857,9.03571429 C26.0246168,9.54618401 26.4596907,10.3810969 26.4596907,11.2721429 C26.4596907,12.1631888 26.0246168,12.9981017 25.2942857,13.5085714 L23.5974687,14.6927073 L9.78,5 L5.80857143,7.79142857 C4.67565933,8.58652297 4.00123734,9.88378167 4.00123734,11.2678571 C4.00123734,12.6519326 4.67565933,13.9491913 5.80857143,14.7442857 L7.05030311,15.6153383 L6.74571429,15.8285714 L6.75100393,15.8361355 L5.80857143,16.4942857 C4.67565933,17.2893801 4.00123734,18.5866388 4.00123734,19.9707143 C4.00123734,21.3547898 4.67565933,22.6520485 5.80857143,23.4471429 L9.76571429,26.2257143 L14.6628571,22.7971429 L13.3485714,21.8714286 L9.76285714,24.3771429 L6.67285714,22.21 C5.94252603,21.6995303 5.50745214,20.8646174 5.50745214,19.9735714 C5.50745214,19.0825255 5.94252603,18.2476126 6.67285714,17.7371429 L8.37835931,16.546946 L22.1942857,26.2385714 L26.1657143,23.4471429 C27.2986264,22.6520485 27.9730484,21.3547898 27.9730484,19.9707143 C27.9730484,18.5866388 27.2986264,17.2893801 26.1657143,16.4942857 L24.9194081,15.6200242 Z M23.5937029,16.5498257 L25.2914286,17.74 C26.0217597,18.2504697 26.4568336,19.0853826 26.4568336,19.9764286 C26.4568336,20.8674745 26.0217597,21.7023874 25.2914286,22.2128571 L22.1971429,24.3771429 L9.70664473,15.6199925 L14.6728571,12.1542857 L13.3528571,11.2257143 L12.986039,11.4818827 L12.9757143,11.4671429 L8.37613446,14.6871651 L6.68285714,13.5 C5.95252603,12.9895303 5.51745214,12.1546174 5.51745214,11.2635714 C5.51745214,10.3725255 5.95252603,9.53761258 6.68285714,9.02714286 L9.77571429,6.86285714 L22.268023,15.6204705 L17.2942857,19.0914286 L18.6085714,20.0171429 L22.3198147,17.4246064 L22.3285714,17.4371429 L23.5937029,16.5498257 Z M16,32 C7.163444,32 0,24.836556 0,16 C0,7.163444 7.163444,0 16,0 C24.836556,0 32,7.163444 32,16 C32,24.836556 24.836556,32 16,32 Z" id="Combined-Shape" fill="#FFF" fill-rule="nonzero"/></g></svg>

<svg width="32" height="32" viewBox="0 0 32 32" xmlns="http://www.w3.org/2000/svg"><path d="M24.92 15.62l.551-.387a28.18 28.18 0 0 1-.005-.006l.697-.487a4.247 4.247 0 0 0 0-6.953l.008.01L22.21 5.02l-4.9 3.429 1.314.925 3.58-2.505 3.09 2.167a2.729 2.729 0 0 1 0 4.473l-1.697 1.184L9.78 5 5.809 7.791a4.247 4.247 0 0 0 0 6.953l1.241.871-.304.214.005.007-.942.658a4.247 4.247 0 0 0 0 6.953l3.957 2.779 4.897-3.429-1.314-.926-3.586 2.506-3.09-2.167a2.729 2.729 0 0 1 0-4.473l1.705-1.19 13.816 9.692 3.972-2.792a4.247 4.247 0 0 0 0-6.953l-1.247-.874zm-1.326.93l1.697 1.19a2.729 2.729 0 0 1 0 4.473l-3.094 2.164-12.49-8.757 4.966-3.466-1.32-.928-.367.256-.01-.015-4.6 3.22L6.683 13.5a2.729 2.729 0 0 1 0-4.473l3.093-2.164 12.492 8.757-4.974 3.471 1.315.926 3.71-2.592.01.012 1.265-.887zM16 32C7.163 32 0 24.837 0 16S7.163 0 16 0s16 7.163 16 16-7.163 16-16 16z" fill="#FFF"/></svg>
